assets/Womens room/Flat/womens_room_flat.svg

<svg width="32" height="32" viewBox="0 0 32 32" fill="none" xmlns="http://www.w3.org/2000/svg">
<path d="M2 6C2 3.79086 3.79086 2 6 2H26C28.2091 2 30 3.79086 30 6V26C30 28.2091 28.2091 30 26 30H6C3.79086 30 2 28.2091 2 26V6Z" fill="#8D65C5"/>
<path d="M18.4412 7.5C18.4412 8.88071 17.3219 10 15.9412 10C14.5605 10 13.4412 8.88071 13.4412 7.5C13.4412 6.11929 14.5605 5 15.9412 5C17.3219 5 18.4412 6.11929 18.4412 7.5Z" fill="white"/>
<path d="M13.0659 10.9375C12.1591 10.9375 11.3658 11.5476 11.133 12.4241L10.0023 16.6808C9.86048 17.2146 10.1783 17.7622 10.712 17.904C11.2458 18.0458 11.7935 17.728 11.9352 17.1942L13.0021 13.2146C13.0393 13.0759 13.1687 12.9825 13.3119 12.9907L13.4382 12.9979C13.6878 13.0122 13.8828 13.2188 13.8828 13.4688L13.891 13.4687L11.9587 20.381C11.8695 20.6998 12.1092 21.0156 12.4402 21.0156H13.5V25.972C13.5 26.5107 13.9138 26.9738 14.4519 26.9988C15.0263 27.0257 15.5 26.5682 15.5 26.0001V21.5157C15.5 21.2394 15.7238 21.0157 16 21.0157C16.2763 21.0157 16.5 21.2394 16.5 21.5157V25.972C16.5 26.5107 16.9138 26.9738 17.4519 26.9988C18.0263 27.0257 18.5 26.5682 18.5 26.0001V21.0156H19.5802C19.9097 21.0156 20.1492 20.7024 20.0626 20.3844L18.1707 13.4297L18.1719 13.4297C18.1719 13.1986 18.3488 13.0044 18.5785 12.9796C18.8025 12.9555 19.0134 13.0975 19.0725 13.3148L20.1288 17.1999C20.2737 17.7328 20.8232 18.0474 21.3561 17.9025C21.889 17.7576 22.2036 17.2081 22.0587 16.6751L20.8999 12.4128C20.6631 11.5419 19.8724 10.9375 18.97 10.9375H13.0659Z" fill="white"/>
</svg>

<svg xmlns="http://www.w3.org/2000/svg" width="32" height="32" fill="none"><path fill="#8D65C5" d="M2 6a4 4 0 0 1 4-4h20a4 4 0 0 1 4 4v20a4 4 0 0 1-4 4H6a4 4 0 0 1-4-4V6Z"/><path fill="#fff" d="M18.441 7.5a2.5 2.5 0 1 1-5 0 2.5 2.5 0 0 1 5 0ZM13.066 10.938a2 2 0 0 0-1.933 1.486l-1.13 4.257a1 1 0 1 0 1.932.513l1.067-3.98a.303.303 0 0 1 .31-.223l.126.007c.25.014.445.22.445.47h.008l-1.932 6.913a.5.5 0 0 0 .481.635h1.06v4.956c0 .539.414 1.002.952 1.027A1 1 0 0 0 15.5 26v-4.484a.5.5 0 1 1 1 0v4.456c0 .539.414 1.002.952 1.027A1 1 0 0 0 18.5 26v-4.984h1.08a.5.5 0 0 0 .483-.632L18.17 13.43c0-.231.178-.426.407-.45a.461.461 0 0 1 .495.335l1.056 3.885a1 1 0 1 0 1.93-.525l-1.16-4.262a2 2 0 0 0-1.929-1.476h-5.904Z"/></svg>
